!!!!SEGMENT: pl-wtm--r-253-m_moniuszko-stanislaw--naprzod-ciebie-wspomina.krn
!!!cenid: 18xx:1659
!!!COM: Moniuszko, Stanisław
!!!COM-rismID:
!!!CDT: 1819/05/05-1872/06/04
!!!CNT: Polish
!!!OTL: Naprzód ciebie wspomina
!!!PDT:
!!!AGN: Secular
!!!SMS-siglum: PL-Wtm
!!!SMS-shelfmark: R 253/M
!!!SMS-shelfwork: W
!!!SMS-variant:
!!!SMS-altvar:
!!!NIFC-rismSourceID: 1001063791
!!!NIFC-islandoraID:
!!!URL-pdf-islandora:
!!!URL-scan:
!!!ONB-nifc:
!!!AIN: 4 empty
!!!key:
**kern	**dynam	**kern	**fing	**dynam	**kern	**text	**dynam	**kern	**text	**dynam
*part4	*part4	*part3	*part3	*part3	*part2	*part2	*part2	*part1	*part1	*part1
*staff4	*	*staff3	*	*	*staff2	*staff2	*	*staff1	*staff1	*
*Iempty	*	*Iempty	*	*	*Iempty	*	*	*Iempty	*	*
*I"	*	*I"	*	*	*I"	*	*	*I"	*	*
*clefF4	*	*clefG2	*	*	*clefG2	*	*	*clefG2	*	*
*k[f#]	*	*k[f#]	*	*	*k[f#]	*	*	*k[f#]	*	*
*G:	*	*G:	*	*	*G:	*	*	*G:	*	*
*M6/8	*	*M6/8	*	*	*M6/8	*	*	*M6/8	*	*
=1	=1	=1	=1	=1	=1	=1	=1	=1	=1	=1
!	!	!	!	!	!	!	!	!LO:TX:t=P:problem=skan 0032	!	!
!	!	!	!	!	!	!	!	!LO:TX:t=P:problem=all\left,middle,right&colon; global	!	!
!	!	!	!	!	!	!	!	!LO:TX:t=P:znaki:global:problem=f# zamiast ff#	!	!
8GG\L	.	2.g/ 2.B/	.	.	2.ryy	.	.	2.ryy	.	.
8D\	.	.	.	.	.	.	.	.	.	.
8G\J	.	.	.	.	.	.	.	.	.	.
*rep	*	*	*	*	*	*	*	*	*	*
8GG\L	.	.	.	.	.	.	.	.	.	.
8D\	.	.	.	.	.	.	.	.	.	.
8G\J	.	.	.	.	.	.	.	.	.	.
*Xrep	*	*	*	*	*	*	*	*	*	*
=2	=2	=2	=2	=2	=2	=2	=2	=2	=2	=2
*rep	*	*	*	*	*	*	*	*	*	*
8GG\L	.	2.g/ 2.B/	.	.	2.ryy	.	.	2.ryy	.	.
8D\	.	.	.	.	.	.	.	.	.	.
8G\J	.	.	.	.	.	.	.	.	.	.
*Xrep	*	*	*	*	*	*	*	*	*	*
*rep	*	*	*	*	*	*	*	*	*	*
8GG\L	.	.	.	.	.	.	.	.	.	.
8D\	.	.	.	.	.	.	.	.	.	.
8G\J	.	.	.	.	.	.	.	.	.	.
*Xrep	*	*	*	*	*	*	*	*	*	*
=3	=3	=3	=3	=3	=3	=3	=3	=3	=3	=3
*	*	*^	*	*	*	*	*	*	*	*
8GG\L	.	8g/	4.B\	.	.	2.ryy	.	.	2.ryy	.	.
8D\	.	16f#/LL	.	.	.	.	.	.	.	.	.
.	.	16g/	.	.	.	.	.	.	.	.	.
8G\J	.	16e/	.	.	.	.	.	.	.	.	.
.	.	16f#/JJ	.	.	.	.	.	.	.	.	.
!LO:TX:t=P:problem=mixed beam	!	!	!	!	!	!	!	!	!	!	!
8GG\L	.	[>4.d/	8B</L	.	.	.	.	.	.	.	.
8D\	.	.	16c</L	.	.	.	.	.	.	.	.
.	.	.	16B</	.	.	.	.	.	.	.	.
8DD/J	.	.	16A<\	.	.	.	.	.	.	.	.
.	.	.	16G</JJ	.	.	.	.	.	.	.	.
=4	=4	=4	=4	=4	=4	=4	=4	=4	=4	=4	=4
8GG\L	.	8d/L]	[4.B</	.	.	2.ryy	.	.	2.ryy	.	.
8D\	.	16f#/L	.	.	.	.	.	.	.	.	.
.	.	16g/	.	.	.	.	.	.	.	.	.
8G\J	.	16e/	.	.	.	.	.	.	.	.	.
.	.	16f#/JJ	.	.	.	.	.	.	.	.	.
!LO:TX:t=P:problem=mixed beam	!	!	!	!	!	!	!	!	!	!	!
8GG\L	.	[>4.d/	8B</L]	.	.	.	.	.	.	.	.
8D\	.	.	16A</L	.	.	.	.	.	.	.	.
.	.	.	16B</	.	.	.	.	.	.	.	.
8DD/J	.	.	16A</	.	.	.	.	.	.	.	.
.	.	.	16G</JJ	.	.	.	.	.	.	.	.
*	*	*v	*v	*	*	*	*	*	*	*	*
!!LO:LB:g=original
=5	=5	=5	=5	=5	=5	=5	=5	=5	=5	=5
!	!	!LO:TX:t=P:problem=brak zakończenia łuku (na początku pięciolinii)	!	!	!	!	!	!	!	!
8GG\L	.	8d/] 8B</	.	.	8r	.	.	8r	.	.
8D\	.	(8dd/L 8b/	.	.	(>8b/	Na-	.	(8dd\	Na-	.
8G\J	.	8g/J 8e/	.	.	8e/	-przód	.	8g/	-przód	.
8GG\L	.	8cc/L 8a/	.	.	8a/	cie-	.	8cc\	cie-	.
8D\	.	8e/ [8c/	.	.	8c/	-bie	.	8e/	-bie	.
8A\J	.	8f#/J 8d/ 8c/]	.	.	8d/	wspo-	.	8f#/	wspo-	.
=6	=6	=6	=6	=6	=6	=6	=6	=6	=6	=6
!	!	!	!	!	!	!	!	!LO:N:vis=4.	!	!
8GG\L	.	4g/ 4B/	.	.	[4.B/)	-mi-	.	4g/	-mi-	.
8D\	.	.	.	.	.	.	.	.	.	.
8G\J	.	8b/ 8d/	.	.	.	.	.	8g/)	-na	.
!	!	!	!	!	!LO:TX:t=P:problem=chorągiewka poprawiona na belkę	!	!	!	!	!
8GG\L	.	4g/ 4B/)	.	.	8B/L]	.	.	[4.gg\	Co	.
8D\	.	.	.	.	8d/J	-na	.	.	.	.
!	!	!	!	!	!LO:TX:t=P:problem=chorągiewka poprawiona na belkę	!	!	!	!	!
8G\J	.	(8d/ 8B/	.	.	8g/	co	.	.	.	.
=7	=7	=7	=7	=7	=7	=7	=7	=7	=7	=7
8GG\L	.	8g/ 8B/)	.	.	4b/	chwi-	.	8gg\]	.	.
8D\	.	(8dd\L 8b\	.	.	.	.	.	8dd\	chwi-	.
.	.	8qff#/ 8qdd/	.	.	.	.	.	.	.	.
8G\J	.	8ee\J 8cc\	.	.	8cc/	-la	.	8ee\	-la	.
*rep	*	*	*	*	*	*	*	*	*	*
8GG\L	.	8dd\L 8b\	.	.	8b/L	co	.	8dd\L	co	.
8D\	.	8cc\ 8a\	.	.	8a/J	.	.	8cc\J	.	.
8G\J	.	8b\J 8g\)	.	.	8g/	go-	.	8b\	go-	.
*Xrep	*	*	*	*	*	*	*	*	*	*
=8	=8	=8	=8	=8	=8	=8	=8	=8	=8	=8
8GG\L	.	8a/ 8f#/	.	.	16f#/LL	-dzi-	.	(4.a\	-dzi-	.
.	.	.	.	.	16e/JJ	.	.	.	.	.
8D\	.	4dd/ 4d^^/	.	.	[4d^/	-na	.	.	.	.
8G\J	.	.	.	.	.	.	.	.	.	.
*rep	*	*	*	*	*	*	*	*	*	*
8GG\L	.	16b\LL 16g\	.	.	4d/]	.	.	16b\LL	.	.
.	.	16cc\JJ 16a\	.	.	.	.	.	16cc\JJ)	.	.
8D\	.	[>4dd\ [>4b^^\	.	.	.	.	.	[4dd^\	-na	.
8G\J	.	.	.	.	8r	.	.	.	.	.
*Xrep	*	*	*	*	*	*	*	*	*	*
!!LO:LB:g=original
=9	=9	=9	=9	=9	=9	=9	=9	=9	=9	=9
8GG\L	.	8dd\] 8b\]	.	.	8r	.	.	8dd\]	.	.
8D\	.	(8dd/L 8b/	.	.	8b\	jak-	.	8dd\|	jak-	.
8G\J	.	8g/J 8e/	.	.	8e/	-że	.	8g/|	-że	.
8GG\L	.	8cc/L 8a/	.	.	8a/	ko-	.	8cc\|	ko-	.
8D\	.	8e/ 8c/	.	.	8c/	-cha	.	8e/|	-cha	.
8A\J	.	8f#/J 8d/ 8c/)	.	.	8d/	dziew	.	8f#/	dziew-	.
=10	=10	=10	=10	=10	=10	=10	=10	=10	=10	=10
*	*	*^	*	*	*	*	*	*	*	*
8GG\L	.	8.g/L	4.B\	.	.	8B/	-czy-	.	4.g/	-czy-	.
8D\	.	.	.	.	.	8d/	-na	.	.	.	.
.	.	16d/K	.	.	.	.	.	.	.	.	.
8G\J	.	8g/J	.	.	.	8r	.	.	.	.	.
!	!	!	!	!	!	!	!	!	!	!	!LO:DY:a
8GG\L	.	8.e/L	4.c#X\ 4.A#X\	.	.	4r	.	.	[4.gg\	-na	pp
8E\	.	.	.	.	.	.	.	.	.	.	.
.	.	16f#/K	.	.	.	.	.	.	.	.	.
8G\J	.	8e/J	.	.	.	8r	.	.	.	.	.
=11	=11	=11	=11	=11	=11	=11	=11	=11	=11	=11	=11
8GG\L	.	8d/ 8B/	4.ryy	.	.	4r	.	.	8gg\]	.	.
8D\	.	(8dd/L 8b/	.	.	.	.	.	.	16dd\LL	co	.
!	!	!	!	!	!	!	!	!	!LO:TX:a:t=legier.	!	!
.	.	.	.	.	.	.	.	.	16ee\JJ	.	.
8G\J	.	8b/J 8g/)	.	.	.	8r	.	.	16b\LL	chwi-	.
.	.	.	.	.	.	.	.	.	16cc\JJ	.	.
8GG\L	.	8cc/L 8a'/	8ryy	.	.	8r	.	.	8dd\	-lę	.
8D\	.	8a/ 8f#'/	8ryy	.	.	16a/LL	co	.	8d/	przy-	.
.	.	.	.	.	.	16b/JJ	.	.	.	.	.
8A\J	.	(<16e/L	8c\	.	.	16e/LL	chwi-	.	8cc\	-po-	.
.	.	16f#/JJ	.	.	.	16f#/JJ	.	.	.	.	.
*	*	*v	*v	*	*	*	*	*	*	*	*
=12	=12	=12	=12	=12	=12	=12	=12	=12	=12	=12
!	!	!	!	!LO:HP:b	!	!	!	!	!	!
8GG\L	.	4.g/ 4.d/ 4.B/)	.	<	8g/	-lę	.	8b/	-mi-	.
!	!	!	!	!	!	!	!	!	!	!LO:DY:a
8D\	.	.	.	.	8f#X/	przy-	.	8a/	-na,	f
8G\J	.	.	.	.	8g/	-po-	.	8g/	ach	.
!	!	!	!	!LO:DY:b	!	!	!	!LO:TX:t=P:problem=brak początku łuku (koniec pięciolinii)	!	!
8GG\L	.	8.g/L 8.e-X/ 8.B-X/	.	[ sf	4.b-X^/	mi-	.	[4.gg^\	ja-	.
!	!	!	!	!LO:HP:b	!	!	!	!	!	!
8E-X\	.	.	.	>	.	.	.	.	.	.
.	.	16fn/K	.	.	.	.	.	.	.	.
8G\J	.	8e-/J	.	]]	.	.	.	.	.	.
!!LO:PB:g=original
=13	=13	=13	=13	=13	=13	=13	=13	=13	=13	=13
!	!	!	!	!	!	!	!	!	!	!LO:DY:a
8GG\L	.	8d/L 8B/	.	.	8bn\	-na,	.	4gg\]	.	>
8D\	.	8b/ 8d/	.	.	(16b^\LL	ja-	.	.	.	.
.	.	.	.	.	16dd\JJ)	.	.	.	.	.
8G\J	.	8g/J 8B/	.	.	(16g^/LL	-każ	.	8dd\	-każ	.
.	.	.	.	.	16b/JJ)	.	.	.	.	.
!LO:TX:t=P:problem=mixed beam	!	!	!	!	!	!	!	!	!	!
(8DD/L	.	8f#/L 8A/	.	.	4d^/	to	.	4dd\	to	.
8F#\)	.	8a/ 8c/	.	.	.	.	.	.	.	.
!	!	!	!	!	!	!	!LO:DY:a	!	!	!
8D\J	.	8d/J 8c/	.	.	8d/	dziew-	p	24cc\LL	dziew-	.
.	.	.	.	.	.	.	.	24b\	.	.
!	!	!	!	!	!	!	!	!LO:TX:t=P:problem=chorągiewka poprawiona na belkę	!	!
.	.	.	.	.	.	.	.	24a\JJ	.	]]
=14	=14	=14	=14	=14	=14	=14	=14	=14	=14	=14
!	!	!	!	!	!	!	!	!	!	!LO:DY:a
8GG\L	.	4g/ 4B/	.	.	[4B/	-czy-	.	[4g/	-czy-	p
8D\	.	.	.	.	.	.	.	.	.	.
[8G\J	.	8d/	.	.	16B/LL]	.	.	16g/LL]	.	.
.	.	.	.	.	32d/L	.	.	32b/L	.	.
.	.	.	.	.	32c/JJJ	.	.	32a/JJJ	.	.
8G\] 8GG\	.	4g/	.	.	4B/	-na!	.	4g/	-na!	.
(16F#\LL	.	.	.	.	.	.	.	.	.	.
16G\	.	.	.	.	.	.	.	.	.	.
16E\	.	8r	.	.	8r	.	.	8r	.	.
16F#\JJ)	.	.	.	.	.	.	.	.	.	.
=15	=15	=15	=15	=15	=15	=15	=15	=15	=15	=15
!	!	!	!	!	!	!	!	!	!	!LO:DY:a
!	!	!	!	!	!	!	!	!	!	!LO:DY:a
4.D\	.	8f#/L 8d/	.	.	2.r	.	.	8f#/	po-	mf <
.	.	8f#/ 8d/	.	.	.	.	.	8g/	-tém	.
.	.	8f#/J 8d/	.	.	.	.	.	8g#X/	po	.
*	*	*tremolo	*	*	*	*	*	*	*	*
4.C/	.	8f#/ 8d/L	.	.	.	.	.	8a\L	ra-	.
.	.	8f#/ 8d/	.	.	.	.	.	8dd\J	.	.
.	.	8f#/ 8d/J	.	.	.	.	.	8ff#\	-zu	[[
=16	=16	=16	=16	=16	=16	=16	=16	=16	=16	=16
!	!	!	!	!	!	!	!	!	!	!LO:DY:a
4.BB/	.	(8f#/L 8d/	.	.	2.r	.	.	4.ff#\	co	>
.	.	8dd/ 8f#/)	.	.	.	.	.	.	.	.
.	.	8f#/J 8d/	.	.	.	.	.	.	.	.
4.AA/	.	8f#/ 8d/L	.	.	.	.	.	8f#/	dnia,	]
.	.	8f#/ 8d/	.	.	.	.	.	8r	.	.
!	!	!	!	!	!	!	!	!	!	!LO:DY:a
.	.	8f#/ 8d/J	.	.	.	.	.	8f#/	a	p
!!LO:LB:g=original
=17	=17	=17	=17	=17	=17	=17	=17	=17	=17	=17
!	!	!	!	!	!	!	!	!	!	!LO:DY:a
4GG/	.	8e/ 8d/ 8B/L	.	.	2.r	.	.	8g/L	po-	p
!	!	!	!	!	!	!	!	!LO:TX:t=P:problem=błędnie wpisany fragment #	!	!
.	.	8e/ 8d/ 8B/	.	.	.	.	.	8a/J	.	.
8FF#/	.	8e/ 8d/ 8B/J	.	.	.	.	.	8a#X/	-tem	.
4EE/	.	8g/ 8d/ 8B/L	.	.	.	.	.	4b\	co	.
.	.	8g/ 8d/ 8B/	.	.	.	.	.	.	.	.
8DD/	.	8g/ 8d/ 8B/J	.	.	.	.	.	8ee\	ty-	.
*	*	*Xtremolo	*	*	*	*	*	*	*	*
=18	=18	=18	=18	=18	=18	=18	=18	=18	=18	=18
4CC/	.	(8g/L 8e/	.	.	2.r	.	.	(4.ee\	-god-	.
.	.	8ee/ 8g/)	.	.	.	.	.	.	.	.
8BBB/	.	8g/J 8e'/	.	.	.	.	.	.	.	.
8AAA/	.	(8g/L 8e/	.	.	.	.	.	8a/)	-nia.	.
!LO:N:vis=8	!	!	!	!	!	!	!	!	!	!
4r	.	8e/ 8c/)	.	.	.	.	.	8r	.	.
.	.	[<8a/J 8A'/	.	.	.	.	.	[8a^/	Ach!	.
=19	=19	=19	=19	=19	=19	=19	=19	=19	=19	=19
!	!	!LO:TX:b:t=scherzando.	!	!	!	!	!	!	!	!
8F#'\L	.	8a/]L 8d/	.	.	2.r	.	.	8a/]	.	.
8D'\	.	8f#/ 8d'/	.	.	.	.	.	8dd\|	ja-	.
8F#'\J	.	8a/J 8d'/	.	.	.	.	.	8a/|	-ka	.
8E'\L	.	8g/L 8A'/	.	.	.	.	.	8cc\|	czu-	.
8A'\	.	8e/ 8c'/	.	.	.	.	.	8a/	-ła	.
8G'\J	.	8a/J 8e/ 8c'/	.	.	.	.	.	8ee\	dziew-	.
=20	=20	=20	=20	=20	=20	=20	=20	=20	=20	=20
16F#\LL	.	(8a/L 8d/	.	.	16f#/LL	co	.	[4.a/	-czy-	.
16E\JJ	.	.	.	.	16e/JJ	.	.	.	.	.
[4D^\	.	8dd/ 8f#/)	.	.	4d^/	ty-	.	.	.	.
.	.	8a/J 8f#'/	.	.	.	.	.	.	.	.
!	!	!	!	!	!	!	!	!LO:TX:t=P:problem=4dd poprawione na 4a	!	!
4.D\]	.	(8cc/L 8e/	.	.	16e/LL	-dzień	.	4a\]	.	.
.	.	.	.	.	16f#/JJ	.	.	.	.	.
.	.	8a/ 8g/)	.	.	4g^/	wspo-	.	.	.	.
!	!	!	!	!	!	!	!	!LO:TX:t=P:problem=8dd poprawione na 8a	!	!
.	.	8ee/J 8cc/ 8a/ 8g'/	.	.	.	.	.	8a\	-na	.
!!LO:LB:g=original
=21	=21	=21	=21	=21	=21	=21	=21	=21	=21	=21
8D\L	.	(8dd/L 8a/ 8f#/	.	.	16f#/LL	-mi-	.	8a/	ach!	.
.	.	.	.	.	16g/JJ	.	.	.	.	.
8AA\	.	8f#/J 8d/)	.	.	[4a^/	-na	.	(8.ff#\	ja-	.
8D\J	.	8f#/ 8d/ 8A'/	.	.	.	.	.	.	.	.
.	.	.	.	.	.	.	.	16dd\	-ka	.
8E\L	.	8g/L 8c/ 8A'/	.	.	8a/]	.	.	8cc\	czu-	.
8AA\	.	8a/ 8e/ 8c'/	.	.	8r	.	.	8a\	-ła	.
8C\J	.	8a/J 8f#/ 8A'/	.	.	8r	.	.	8ee\)	dziew-	.
=22	=22	=22	=22	=22	=22	=22	=22	=22	=22	=22
4.D/ 4.DD/	.	8f#/L [8d/	.	.	16f#/LL	co	.	(4.a/	-czy-	.
.	.	.	.	.	16e/JJ	.	.	.	.	.
.	.	8dd/ 8f#/ 8d/]	.	.	4d^/	ty-	.	.	.	.
.	.	8a/J 8f#/ 8d'/	.	.	.	.	.	.	.	.
4.AA/	.	(>8b/L 8fn/ 8d/	.	.	16d/LL	-dzień	.	16b\LL	.	.
.	.	.	.	.	16e/JJ	.	.	16cc\JJ	.	.
.	.	8g/ 8f/ 8d/)	.	.	4fn/	wspo-	.	8dd\)	-na	.
.	.	8dd/J 8g/ 8f'/	.	.	.	.	.	8r	.	.
=23	=23	=23	=23	=23	=23	=23	=23	=23	=23	=23
!LO:TX:t=P:problem=przed 8CC usunięta 8r	!	!	!	!	!	!	!	!	!	!
8CC/	.	8cc/L 8g/ 8e/	.	.	8e/	-mi-	.	8g'/	co	.
!LO:TX:t=P:problem=8C poprawione na 8G	!	!	!	!	!	!	!	!	!	!
8G'\L	.	8e/ 8c'/	.	.	8c/	-na	.	8cc'\	ty-	.
!LO:TX:t=P:problem=8E poprawione na 8C	!	!LO:TX:t=P:problem=wykreślone 8c	!	!	!	!	!	!	!	!
8C'\J	.	8g/J 8e'/	.	.	8r	.	.	8g'/	-dzień	.
!LO:TX:t=P:problem=8D poprawione na 8G	!	!LO:TX:t=P:problem=wykreślone 8G	!	!	!	!	!	!	!	!
8G\L	.	8fn/L 8d/	.	.	4r	.	.	8b'\	cie-	.
!LO:TX:t=P:problem=8G poprawione na 8C	!	!	!	!	!	!	!	!	!	!
8C'\	.	8d/ 8B/	.	.	.	.	.	8g'/	-bie	.
8Fn'\J	.	8g/J 8d/ 8B/	.	.	8r	.	.	8dd'\	wspo-	.
=24	=24	=24	=24	=24	=24	=24	=24	=24	=24	=24
!	!	!	!	!	!	!	!	!LO:TX:t=P:problem=przed 4.g wykreślone 1g	!	!
16E\LL	.	(8g/L 8c/	.	.	16e/LL	jak-	.	[4.g/	mi-	.
16D\JJ	.	.	.	.	16d/JJ	.	.	.	.	.
[4C^\	.	8cc/ 8e/)	.	.	4c/	-że	.	.	.	.
.	.	8g/J 8e'/	.	.	.	.	.	.	.	.
4.C\]	.	(8b/L 8d/	.	.	16d/LL	czu-	.	4g/]	.	.
.	.	.	.	.	16e/JJ	.	.	.	.	.
.	.	8g/ 8fn/)	.	.	4fn/	-ła	.	.	.	.
.	.	8dd/J 8g/ 8f'/	.	.	.	.	.	8g/	-na	.
!!LO:PB:g=original
=25	=25	=25	=25	=25	=25	=25	=25	=25	=25	=25
8C'\L	.	(8cc/L 8g/ 8e/	.	.	16e/LL	dziew-	.	8g/	co	.
.	.	.	.	.	16fn/JJ	.	.	.	.	.
8GG'\	.	8g/ 8e/ 8c/)	.	.	([4g/	-czy-	.	8.ee^\	ty-	.
8C'\J	.	8e/J 8c/ 8G'/	.	.	.	.	.	.	.	.
.	.	.	.	.	.	.	.	16cc\	-dzień	.
8D'\L	.	(8fn/L 8B/ 8G/	.	.	4g/]	.	.	8b/	cie-	.
8GG'\	.	8g/ 8d/ 8B/)	.	.	.	.	.	8g/	-bie	.
8BB'\J	.	8f/J 8d/ 8G'/	.	.	8fn/	.	.	8dd\	wspo-	.
=26	=26	=26	=26	=26	=26	=26	=26	=26	=26	=26
*^	*	*	*	*	*	*	*	*	*	*
!	!	!	!	!	!LO:HP:b	!LO:TX:t=P:problem=16f poprawione na 16e	!	!	!LO:TX:t=P:problem=przed 4.g wykreślone 1g	!	!
8C/L	4.C\	.	(8e/L 8c/ 8G/	.	>	16e/LL)	.	.	4.g/	-mi-	.
!	!	!	!	!	!	!LO:TX:t=P:problem=16e poprawione na 16d	!	!	!	!	!
.	.	.	.	.	.	16d/JJ	.	.	.	.	.
8G/	.	.	8g/ 8e/ 8c/)	.	.	8c/	-na!	.	.	.	.
[8C/J	.	.	8e/J 8c/ 8G'/	.	.	8r	.	.	.	.	.
8G/L	4.C\]	.	(8g/L 8e-X/ 8c/ 8G/	.	.	16c/LL	po-	.	8cc\	-na	.
.	.	.	.	.	.	16d/JJ	.	.	.	.	.
!	!	!	!LO:TX:t=P:problem=wykreślone 8g	!	!	!	!	!	!	!	!
8C/	.	.	8e-/ 8c/)	.	.	4e-X/	-tém...	.	8r	.	.
!	!	!	!LO:TX:t=P:problem=wykreślone 8G, 8c	!	!	!	!	!	!	!	!
8G/J	.	.	8g/J 8e-'/	.	]]	.	.	.	8r	.	.
*v	*v	*	*	*	*	*	*	*	*	*	*
=27	=27	=27	=27	=27	=27	=27	=27	=27	=27	=27
*2\right	*	*tremolo	*	*	*	*	*	*	*	*
!	!	!	!	!LO:DY:rj:b	!	!	!	!	!	!
2.C\ 2.CC\	.	8f#/ 8d/ 8A</ 8F#</L	.	p	8d/	a	.	2.r	.	.
.	.	8f#/ 8d/ 8A</ 8F#</	.	.	8f#X/	po-	.	.	.	.
.	.	8f#/ 8d/ 8A</ 8F#</J	.	.	8a/	-tém	.	.	.	.
.	.	8g/ 8e-X/ 8c/ 8G</L	.	.	8cc\L	co	.	.	.	.
.	.	8g/ 8e-X/ 8c/ 8G</	.	.	8a\J	.	.	.	.	.
.	.	8g/ 8e-X/ 8c/ 8G</J	.	.	8ee-X\	mie-	.	.	.	.
!!LO:LB:g=original
=28	=28	=28	=28	=28	=28	=28	=28	=28	=28	=28
!	!	!	!	!	!	!	!	!	!	!LO:DY:a
!	!	!	!	!	!	!	!	!	!	!LO:DY:a
(>4.C\	.	8f#/ 8d/ 8A/ 8F#X</L	.	.	[4.dd\	-sią-	.	(8dd\L	po-	p >
.	.	8f#/ 8d/ 8A/ 8F#X</	.	.	.	.	.	8a\J)	.	.
.	.	8f#/ 8d/ 8A/ 8F#X</J	.	.	.	.	.	8dd'\	-tém	]
16BB-X\LL	.	(8d/L 8G/	.	.	8dd\]	.	.	(8dd\L	co	.
16AA\JJ	.	.	.	.	.	.	.	.	.	.
!	!	!LO:TX:t=P:problem=wykreślone 8g	!	!	!	!	!	!	!	!
4GG^\)	.	8d/ 8B-X/)	.	.	8b-X\	-ca	.	8b-X\J)	.	.
!	!	!LO:TX:t=P:problem=wykreślone 8G	!	!	!	!	!	!	!	!
.	.	8g/J 8d/ 8B-'/	.	.	8g/	spo-	.	8dd\	mie-	.
=29	=29	=29	=29	=29	=29	=29	=29	=29	=29	=29
2.C\ 2.CC\	.	8f#X/ 8d/ 8A/L	.	.	8d/L	-czą-	.	[4.dd\	-sią-	.
.	.	8f#X/ 8d/ 8A/	.	.	8f#X/J	.	.	.	.	.
.	.	8f#X/ 8d/ 8A/J	.	.	8a/	-tku	.	.	.	.
.	.	8g/ 8e-X/ 8c/L	.	.	8cc\L	al-	.	4dd\]	.	.
.	.	8g/ 8e-X/ 8c/	.	.	8a\J	.	.	.	.	.
.	.	8g/ 8e-X/ 8c/J	.	.	8ee-X\	-bo	.	8g/	-ca,	.
=30	=30	=30	=30	=30	=30	=30	=30	=30	=30	=30
!	!	!	!	!	!LO:TX:t=P:problem=4dd poprawione na 2.dd	!	!	!LO:TX:t=P:problem=8cc poprawione na 8dd	!	!
4.C/	.	8f#X/ 8d/ 8A/L	.	.	2.dd\	skoń-	.	(8dd\L	po-	.
.	.	8f#X/ 8d/ 8A/	.	.	.	.	.	8a\J)	.	.
.	.	8f#X/ 8d/ 8A/J	.	.	.	.	.	8dd\	-tém	.
*	*	*Xtremolo	*	*	*	*	*	*	*	*
16BB-X/LL	.	8g/L 8d/ 8G/	.	.	.	.	.	(8dd\L	co	.
16AA/JJ	.	.	.	.	.	.	.	.	.	.
4GG^/	.	8g/ 8d/ 8B-X/	.	.	.	.	.	8b-X\J)	.	.
.	.	8g/J 8d/ 8B-/	.	.	.	.	.	8dd\	mie-	.
=31	=31	=31	=31	=31	=31	=31	=31	=31	=31	=31
[4.C/ [4.CC/	.	[4.f#X/ [4.d/ [4.A/	.	.	8d/	-ca...	.	8dd\	-sią-	.
.	.	.	.	.	.	.	.	8qee/	.	.
.	.	.	.	.	8r	.	.	8dd\	-ca.	.
.	.	.	.	.	8r	.	.	8cc#X\	Jak	.
*	*	*tremolo	*	*	*	*	*	*	*	*
8C/]L 8CC/]	.	8f#/] 8d/] 8A/]L	.	.	4r	.	.	[4.dd\	do-	.
[>8C/	.	8f#/ 8d/ 8A/	.	.	.	.	.	.	.	.
[8CC/J	.	8f#/ 8d/ 8A/J	.	.	8r	.	.	.	.	.
!!LO:LB:g=original
=32	=32	=32	=32	=32	=32	=32	=32	=32	=32	=32
!	!	!LO:TX:t=P:problem=wykreślony akord 2G#-d-fn	!	!	!	!	!	!	!	!
4.C/_ 4.CC/_	.	[4.fn/ [4.d/ [4.G#X</	.	.	2.r	.	.	8dd\]	.	.
.	.	.	.	.	.	.	.	8qee/	.	.
.	.	.	.	.	.	.	.	8dd\	-bra	.
.	.	.	.	.	.	.	.	8cc#X\	dziew-	.
*tremolo	*	*	*	*	*	*	*	*	*	*
8C/] 8CC/]L	.	8f/] 8d/] 8G#</]L	.	.	.	.	.	[4.dd\	-czy-	.
8C/ 8CC/	.	8f/ 8d/ 8G#</	.	.	.	.	.	.	.	.
8C/ 8CC/J	.	8f/ 8d/ 8G#</J	.	.	.	.	.	.	.	.
=33	=33	=33	=33	=33	=33	=33	=33	=33	=33	=33
*^	*	*	*	*	*	*	*	*	*	*
4.G#X/	(4.BB\	.	(>[>2.e/ 2.d/	.	.	2.r	.	.	8dd\]	.	.
.	.	.	.	.	.	.	.	.	8cc#X\	-na,	.
.	.	.	.	.	.	.	.	.	8dd\	jak	.
[4.Gn/	4.BB-X\	.	.	.	.	.	.	.	8ee\	do-	.
.	.	.	.	.	.	.	.	.	8cc#\	-bra	.
.	.	.	.	.	.	.	.	.	8dd\	dziew-	.
=34	=34	=34	=34	=34	=34	=34	=34	=34	=34	=34	=34
*	*	*	*^	*	*	*	*	*	*	*	*
4.G/]	4.AA\	.	4.e/]	4.c#X\	.	.	8r	.	.	8ee\	-czy-	.
.	.	.	.	.	.	.	8r	.	.	8a/	-na	.
!	!	!	!	!	!	!	!LO:TX:t=P:problem=8d poprawione na 8e	!	!	!	!	!
.	.	.	.	.	.	.	8e/	co	.	8b/	co	.
8F#/L	4.D\	.	8d/L	4.cn\	.	.	8e/	mie-	.	8cc/	mie-	.
8G/	.	.	8e/	.	.	.	8c/	-siąc	.	8e/	-siąc	.
8A/J	.	.	8f#/J	.	.	.	8d/	wspo-	.	8f#/	wspo-	.
*	*	*	*v	*v	*	*	*	*	*	*	*	*
=35	=35	=35	=35	=35	=35	=35	=35	=35	=35	=35	=35
!	!	!	!	!	!	!LO:TX:t=P:problem=t. 35 wykreślony - poprawny wpisany nad systemem	!	!	!	!	!
8G/L	4.GG\)	.	4g/ 4B/	.	.	[4.B/	-mi-	.	4.g/	-mi-	.
8D/	.	.	.	.	.	.	.	.	.	.	.
8G/J	.	.	8b/ 8d/	.	.	.	.	.	.	.	.
(<8GG/L	4.GG\	.	4g/ 4B/	.	.	8B/]	.	.	[4.gg\	-na	.
8D/	.	.	.	.	.	8d/	-na	.	.	.	.
!	!	!	!	!	!	!LO:TX:t=P:problem=brak początku łuku (koniec pięciolinii)	!	!	!	!	!
8G/J)	.	.	8d/ 8B/)	.	.	(8g/	co	.	.	.	.
*v	*v	*	*	*	*	*	*	*	*	*	*
!!LO:PB:g=original
=36	=36	=36	=36	=36	=36	=36	=36	=36	=36	=36
!	!	!	!	!	!LO:TX:t=P:problem=t. 36-37 wykreślony - poprawne wpisane pod systemem	!	!	!	!	!
2.ryy	.	2.ryy	.	.	16b/)	.	.	16gg\]	.	.
.	.	.	.	.	16r	.	.	16r	.	.
!	!	!	!	!	!	!	!	!LO:TX:t=P:problem=poprawiony tekst w górnym głosie	!	!LO:DY:a
.	.	.	.	.	8b/	bie-	.	8dd\	[[co	pp
.	.	.	.	.	8cc/	-gą	.	8ee\	chwi-	.
.	.	.	.	.	8b/	wo-	.	8dd\	-la	.
.	.	.	.	.	8a/	-dy	.	8cc\	co	.
.	.	.	.	.	8g/	w po-	.	8b\	go-	.
=37	=37	=37	=37	=37	=37	=37	=37	=37	=37	=37
2.ryy	.	2.ryy	.	.	16f#/LL	-to-	.	(4.a/	-dzi-	.
.	.	.	.	.	16e/JJ	.	.	.	.	.
.	.	.	.	.	[4d^/	-ku	.	.	.	.
.	.	.	.	.	4d/]	.	.	16b/LL)	.	.
.	.	.	.	.	.	.	.	16cc/JJ	.	.
.	.	.	.	.	.	.	.	[4dd^/	-na]]	.
.	.	.	.	.	8r	.	.	.	.	.
=38	=38	=38	=38	=38	=38	=38	=38	=38	=38	=38
2.ryy	.	2.ryy	.	.	8r	.	.	8dd/]	.	.
.	.	.	.	.	8b/	bie-	.	8dd/	bie-	.
.	.	.	.	.	8e/	-gą	.	8g/	-gą	.
.	.	.	.	.	8a/	bie-	.	8cc/	bie-	.
.	.	.	.	.	8c/	-gą	.	8e/	-gą	.
.	.	.	.	.	8d/	w po-	.	8f#/	w po-	.
!!LO:LB:g=original
=39	=39	=39	=39	=39	=39	=39	=39	=39	=39	=39
2.ryy	.	2.ryy	.	.	8B/	-to-	.	4g/	-to-	.
.	.	.	.	.	8d/	-ku	.	.	.	.
.	.	.	.	.	8r	.	.	8g/	-ku,	.
.	.	.	.	.	4r	.	.	[4.gg\	pa-	.
.	.	.	.	.	8r	.	.	.	.	.
=40	=40	=40	=40	=40	=40	=40	=40	=40	=40	=40
*	*	*	*	*	*	*	*	*^	*	*
2.ryy	.	2.ryy	.	.	4r	.	.	8gg\]	4ryy	.	.
.	.	.	.	.	.	.	.	16dd\LL	.	-mięć	.
.	.	.	.	.	.	.	.	16ee\JJ	.	.	.
.	.	.	.	.	8r	.	.	16b\LL	8ryy	nie	.
.	.	.	.	.	.	.	.	16cc\JJ	.	.	.
!	!	!	!	!	!	!	!	!LO:TX:t=P::problem=wykreślony 2. głos&colon; 8dd 8d	!	!	!
.	.	.	.	.	8r	.	.	4dd/	4ryy	w na-	.
.	.	.	.	.	16a/LL	pa-	.	.	.	.	.
.	.	.	.	.	16b/JJ	.	.	.	.	.	.
.	.	.	.	.	16e/LL	-mięć	.	8cc/	8cc\	-szej	.
.	.	.	.	.	16f#/JJ	.	.	.	.	.	.
*	*	*	*	*	*	*	*	*v	*v	*	*
=41	=41	=41	=41	=41	=41	=41	=41	=41	=41	=41
.	.	.	.	.	.	.	.	8qcc/	.	.
2.ryy	.	2.ryy	.	.	8g/	nie	.	8b\	mo-	.
.	.	.	.	.	8f#X/	w na-	.	8a\	-cy,	.
!	!	!	!	!	!	!	!	!LO:TX:t=P:tekst:problem=ach poprawione na nie	!	!
.	.	.	.	.	8g/	-szej	.	8g/	nie	.
!	!	!	!	!	!	!	!	!LO:TX:t=P:tekst:problem=pa- poprawione na w na-	!	!
.	.	.	.	.	4.b-X\	mo-	.	[4.gg^\	w na-	.
=42	=42	=42	=42	=42	=42	=42	=42	=42	=42	=42
2.ryy	.	2.ryy	.	.	8bn\	-cy	.	8gg\]	.	.
.	.	.	.	.	16b\LL	pa-	.	8dd\	-szej	.
.	.	.	.	.	16dd\JJ	.	.	.	.	.
.	.	.	.	.	16g/LL	-mięć	.	4dd\	o-	.
.	.	.	.	.	16b/JJ	.	.	.	.	.
!	!	!	!	!	!LO:TX:t=P:problem=8.d poprawione na 8d	!	!	!	!	!
.	.	.	.	.	8d/	nie	.	.	.	.
!	!	!	!	!	!LO:TX:t=P:problem=16d poprawione na 8.d	!	!	!LO:N:vis=24	!	!
.	.	.	.	.	8.d/	w na-	.	12cc\L	-na	.
!	!	!	!	!	!	!	!	!LO:N:vis=24	!	!
.	.	.	.	.	.	.	.	12b\	.	.
!	!	!	!	!	!	!	!	!LO:N:vis=24	!	!
.	.	.	.	.	.	.	.	12a\J	.	.
.	.	.	.	.	16d/	-szej	.	.	.	.
!!LO:LB:g=original
=43	=43	=43	=43	=43	=43	=43	=43	=43	=43	=43
2.ryy	.	2.ryy	.	.	[>4B/	mo-	.	[4g/	mo-	.
.	.	.	.	.	16B/LL]	.	.	16g/LL]	.	.
.	.	.	.	.	32d/L	.	.	32b/L	.	.
.	.	.	.	.	32c/JJJ	.	.	32a/JJJ	.	.
.	.	.	.	.	4B/	-cy.	.	4g/	-cy.	.
.	.	.	.	.	8r	.	.	8r	.	.
=44	=44	=44	=44	=44	=44	=44	=44	=44	=44	=44
8e-X>\ 8c>\L	.	8g/L	.	.	2.r	.	.	8g/	Już	.
8e-X>\ 8c>\	.	8g/	.	.	.	.	.	8a/	tyl-	.
8e-X>\ 8c>\	.	8g/	.	.	.	.	.	8bn\	-ko	.
8e-X>\ 8c>\	.	8g/	.	.	.	.	.	4cc\	raz	.
8e-X>\ 8c>\	.	8g/	.	.	.	.	.	.	.	.
8e-X>\ 8c>\J	.	8g/J	.	.	.	.	.	8ee-X\	co	.
=45	=45	=45	=45	=45	=45	=45	=45	=45	=45	=45
!LO:N:vis=2	!	!	!	!	!	!	!	!	!	!
8e-X>\ 8c>\L	.	8g/L	.	.	2.r	.	.	4.ee-X\	ro-	.
8e-X>\ 8c>\	.	8a-X/	.	.	.	.	.	.	.	.
8e-X>\ 8c>\	.	8b/J	.	.	.	.	.	.	.	.
8e-X>\ 8c>\	.	8cc/L	.	.	.	.	.	8a-X/	-ku	.
8e-X>\ 8c>\	.	8dd/	.	.	.	.	.	8r	.	.
8e-X>\ 8c>\J	.	8ee-X/J	.	.	.	.	.	8a-/	o-	.
=46	=46	=46	=46	=46	=46	=46	=46	=46	=46	=46
8f#>\ 8c>\L	.	8ee-X/L 8a-X/	.	.	2.r	.	.	8a-X/L	-ko-	.
8f#>\ 8c>\	.	8dd/J 8a-/	.	.	.	.	.	8b-X/J	.	.
8f#>\ 8c>\	.	8a-/	.	.	.	.	.	8cc\	-ło	.
8f#>\ 8c>\	.	8a-/L	.	.	.	.	.	8dd\L	Wiel-	.
8f#>\ 8c>\	.	8a-/	.	.	.	.	.	8ee-X\J	.	.
8f#>\ 8c>\J	.	8a-/J	.	.	.	.	.	8ffn\	-kiej-	.
*Xtremolo	*	*Xtremolo	*	*	*	*	*	*	*	*
!!LO:PB:g=original
=47	=47	=47	=47	=47	=47	=47	=47	=47	=47	=47
8fn>\L 8Bn>\	.	8g/L	.	.	2.r	.	.	4.ffn\	-no-	.
8f>\ 8d>\	.	8bn/ 8g/	.	.	.	.	.	.	.	.
8f>\J 8c>\	.	8cc/J 8g/	.	.	.	.	.	.	.	.
8B>\L	.	8dd/L 8g/	.	.	.	.	.	8g/	-cy	.
8G>\	.	8gg/ 8b/ 8g/	.	.	.	.	.	8r	.	.
8B>\J	.	8ffn/J 8dd/ 8g/	.	.	.	.	.	8g/	.	.
=48	=48	=48	=48	=48	=48	=48	=48	=48	=48	=48
!LO:TX:t=P:problem=wykreślone 8c	!	!	!	!	!	!	!	!	!	!
8c>\L	.	(<8ee-X/L (<8cc/ 8g/	.	.	2.r	.	.	8g\L	.	.
!LO:TX:t=P:problem=wykreślone 8G	!	!	!	!	!	!	!	!	!	!
8G>\	.	8gg/ 8ee-/) 8g/)	.	.	.	.	.	8ee-X\J	.	.
8e-X>\J	.	8cc/J 8g'/	.	.	.	.	.	8cc\	.	.
!	!	!LO:TX:t=P:łuki:problem	!	!	!	!	!	!	!	!
8d>\L	.	(>(>8b/L 8g/	.	.	.	.	.	8b/	.	.
8g>\	.	8dd/ 8b/))	.	.	.	.	.	8g/	.	.
8fn>\J	.	8dd/J 8b'/	.	.	.	.	.	8dd\	.	.
=49	=49	=49	=49	=49	=49	=49	=49	=49	=49	=49
*	*	*^	*	*	*	*	*	*	*	*
16e-X>\LL	.	(<8cc/L 8g/	4ryy	.	.	16e-X/LL	.	.	4.cc\	.	.
16d>\JJ	.	.	.	.	.	16d/JJ	.	.	.	.	.
[<4c>^\	.	8ee-X/J 8cc/)	.	.	.	4c/	.	.	.	.	.
.	.	8ee-/ 8cc/	8g\	.	.	.	.	.	.	.	.
4.c>\]	.	(<16dd/LL 16b/	8g\L	.	.	16d/LL	.	.	8g/	.	.
.	.	16ee-X/J 16cc/	.	.	.	16e-/JJ	.	.	.	.	.
.	.	8ffn/J 8dd/)	8g\J	.	.	4fn/	.	.	8r	.	.
.	.	8g/	8ryy	.	.	.	.	.	8g/	.	.
*	*	*v	*v	*	*	*	*	*	*	*	*
!!LO:LB:g=original
=50	=50	=50	=50	=50	=50	=50	=50	=50	=50	=50
!LO:TX:t=P:problem=mixed beam	!	!LO:TX:t=P:łuki:problem	!	!	!	!	!	!	!	!
8c>\L	.	8ee-X/L 8cc/ 8g/	.	.	16e-X/LL	.	.	8g\L	.	.
.	.	.	.	.	16f#/JJ	.	.	.	.	.
8G/	.	8gg/ 8ee-/ 8g/	.	.	[4g/	.	.	8ee-X\J	.	.
8e-X>\J	.	8cc/J 8g/	.	.	.	.	.	8cc\	.	.
!	!	!LO:TX:t=P:łuki:problem	!	!	!	!	!	!	!	!
8c>\L	.	8b/L 8g/	.	.	4g/]	.	.	8b\L	.	.
8g>\	.	8dd/ 8b/	.	.	.	.	.	8cc\J	.	.
8g>\J 8fn>\	.	8dd/J 8b/	.	.	8r	.	.	8dd\	.	.
=51	=51	=51	=51	=51	=51	=51	=51	=51	=51	=51
8e-X>\L	.	8cc/L 8g/	.	.	16e-X/LL	.	.	4.cc\	.	.
.	.	.	.	.	16d/JJ	.	.	.	.	.
8c>\	.	8ee-X/ 8cc/ 8g/	.	.	4c^/	.	.	.	.	.
8B-X>\J	.	[8ee-/J [8cc/ 8g-X/	.	.	.	.	.	.	.	.
!LO:TX:t=P:problem=mixed beam	!	!	!	!	!	!	!	!	!	!
8A/L	.	8ee-/]L 8cc/] 8f#/	.	.	16c/LL	.	.	8fn/	.	.
.	.	.	.	.	16d/JJ	.	.	.	.	.
8c/	.	8cc/ 8a/	.	.	4e-/	.	.	8r	.	.
8fn>\J	.	8cc/J 8a/	.	.	.	.	.	8f/	co	.
=52	=52	=52	=52	=52	=52	=52	=52	=52	=52	=52
!LO:TX:t=P:problem=mixed beam	!	!	!	!	!	!	!	!LO:TX:t=P:problem=mixed beam	!	!
8B-X/L	.	8dd/L 8b-X/ 8fn/	.	.	16d/LL	.	.	8fn/L	ro-	.
.	.	.	.	.	16e-X/JJ	.	.	.	.	.
8Fn/	.	8ffn/ 8dd/ 8f/	.	.	[4fn/	.	.	8dd\J	.	.
8d>\J	.	8b-/J 8f/	.	.	.	.	.	8b-X\	-ku	.
!	!	!LO:TX:t=P:łuki:problem	!	!	!	!	!	!	!	!
8c>\L	.	8a/L 8f/	.	.	4f/]	.	.	8a/	cie-	.
8fn>\	.	8cc/ 8a/	.	.	.	.	.	8fn/	-bie	.
8e-X>\J	.	8cc/J 8a/	.	.	8r	.	.	8cc\	wspo-	.
=53	=53	=53	=53	=53	=53	=53	=53	=53	=53	=53
*	*	*^	*	*	*	*	*	*	*	*
(16d>\LL	.	8b-X/L 8fn/	4.ryy	.	.	16d/LL	.	.	4.b-X/	-mi-	.
16c>\JJ	.	.	.	.	.	16c/JJ	.	.	.	.	.
[4B-X/)	.	8dd-X/ 8b-/	.	.	.	4B-X/	.	.	.	.	.
.	.	8dd-/J 8b-/	.	.	.	.	.	.	.	.	.
4.B-/]	.	(<16cc/LL 16a/	8f\L	.	.	16c/LL	.	.	8fn/	-na	.
.	.	16dd-/J 16b-/	.	.	.	16d/JJ	.	.	.	.	.
.	.	8ee-X/J 8cc/)	8f\J	.	.	4e-X/	.	.	8r	.	.
.	.	8f/	8ryy	.	.	.	.	.	8f/	co	.
*	*	*v	*v	*	*	*	*	*	*	*	*
!!LO:LB:g=original
=54	=54	=54	=54	=54	=54	=54	=54	=54	=54	=54
!LO:TX:t=P:problem=mixed beam	!	!	!	!	!	!	!	!	!	!
8B-X/L	.	8dd/L 8b-X/ 8fn/	.	.	16d/LL	.	.	8fn/L	ro-	.
.	.	.	.	.	16e-X/JJ	.	.	.	.	.
8Fn/	.	8ffn/ 8dd/ 8f/	.	.	[4fn^/	.	.	8dd/J	.	.
8d>\J	.	8b-/J 8f/	.	.	.	.	.	8b-X/	-ku	.
!LO:TX:t=P:problem=mixed beam	!	!	!	!	!	!	!	!LO:TX:t=P:problem=wykreślona belka między 8a i 8cc	!	!
8e-X>\L	.	8a/L 8f/	.	.	4f/]	.	.	8a\	cie-	.
8c>\	.	8cc/ 8a/	.	.	.	.	.	8cc\	-bie	.
!	!	!LO:TX:t=P:problem=wykreślone 8a	!	!	!	!	!	!	!	!
8A/J	.	8ee-X/J 8cc/ 8f/	.	.	8r	.	.	8ee-X\	wspo-	.
=55	=55	=55	=55	=55	=55	=55	=55	=55	=55	=55
*	*	*tremolo	*	*	*	*	*	*	*	*
!	!	!	!	!	!	!	!	!LO:TX:t=P:problem=2\right&colon; global	!	!
!	!	!	!	!	!	!	!	!LO:TX:t=P:problem=4d poprawione na 2.d	!	!
(4.B-X\	.	8dd/ 8fn/L	.	.	16d/LL	co	.	[2.dd\	-mi-	.
.	.	.	.	.	16c#X/JJ	.	.	.	.	.
.	.	8dd/ 8fn/	.	.	[4d/	rok	.	.	.	.
.	.	8dd/ 8fn/J	.	.	.	.	.	.	.	.
4A\	.	8dd/ 8cc/ 8f#X/L	.	.	16d/LL]	.	.	.	.	.
.	.	.	.	.	16c#X/JJ	co	.	.	.	.
.	.	8dd/ 8cc/ 8f#X/	.	.	[4d/	rok!	.	.	.	.
8D\)	.	8dd/ 8cc/ 8f#X/J	.	.	.	.	.	.	.	.
=56	=56	=56	=56	=56	=56	=56	=56	=56	=56	=56
*^	*	*^	*	*	*	*	*	*	*	*
8GG/	4.ryy	.	8r	8ryy	.	.	2.d/_	.	.	8dd\]	.	.
(8c#X/L 8A#X/	.	.	(<16cc#X/LL	8a\	.	.	.	.	.	8cc#X\	-na,	.
.	.	.	16ee/	.	.	.	.	.	.	.	.	.
8d/J 8B/)	.	.	16dd/	8ryy	.	.	.	.	.	8dd\	już	.
.	.	.	16b/JJ)	.	.	.	.	.	.	.	.	.
8r	4.G\	.	8bb\	8ryy	.	.	.	.	.	8ee\	tyl-	.
(<8c#/L 8A#/	.	.	(<16cc#/LL	8a\	.	.	.	.	.	8cc#\	-ko	.
.	.	.	16ee/	.	.	.	.	.	.	.	.	.
8d/J 8B/)	.	.	16dd/	8ryy	.	.	.	.	.	8dd\	co	.
.	.	.	16b/JJ)	.	.	.	.	.	.	.	.	.
*	*	*	*v	*v	*	*	*	*	*	*	*	*
=57	=57	=57	=57	=57	=57	=57	=57	=57	=57	=57	=57
*	*	*	*	*	*	*	*	*	*2\right	*	*
8r	4.E\	.	8bb\	.	.	8d/]	.	.	2.ee\	ro	.
(<8B/L 8G#X/	.	.	16e/LL	.	.	8d/	pa-	.	.	.	.
.	.	.	16f#/	.	.	.	.	.	.	.	.
8d/J 8B/)	.	.	16g#X/	.	.	8c/	-mięć	.	.	.	.
.	.	.	16a/JJ	.	.	.	.	.	.	.	.
8r	4.E\	.	16b\LL	.	.	8B/	nie	.	.	.	.
.	.	.	16cc\	.	.	.	.	.	.	.	.
(<8B/L 8G#/	.	.	16dd\	.	.	8.e/	w na-	.	.	.	.
.	.	.	16ee\	.	.	.	.	.	.	.	.
8d/J 8B/)	.	.	16ff#\	.	.	.	.	.	.	.	.
.	.	.	16gg#X\JJ	.	.	16d/	-szej	.	.	.	.
*v	*v	*	*	*	*	*	*	*	*	*	*
!!LO:PB:g=original
=58	=58	=58	=58	=58	=58	=58	=58	=58	=58	=58
*	*	*^	*	*	*	*	*	*	*	*
2.ryy	.	8aa'\	8ryy	.	.	4c/	.	.	8ee\	.	.
.	.	(<16b/LL	8g#X\	.	.	.	.	.	8b\	.	.
.	.	16dd/	.	.	.	.	.	.	.	.	.
.	.	16cc/	8ryy	.	.	8e/	.	.	8cc\	.	.
.	.	16a/JJ)	.	.	.	.	.	.	.	.	.
.	.	8aa'\	8ryy	.	.	4r	.	.	8dd\	.	.
.	.	(<16b/LL	8g#\	.	.	.	.	.	8b\	.	.
.	.	16dd/	.	.	.	.	.	.	.	.	.
.	.	16cc/	8ryy	.	.	8r	.	.	8cc\	.	.
.	.	16a/JJ)	.	.	.	.	.	.	.	.	.
*	*	*v	*v	*	*	*	*	*	*	*	*
=59	=59	=59	=59	=59	=59	=59	=59	=59	=59	=59
2.ryy	.	8aa\	.	.	8r	.	.	2.dd\	.	.
.	.	16d/LL	.	.	8d/	.	.	.	.	.
.	.	16e/	.	.	.	.	.	.	.	.
.	.	16f#/	.	.	8e/	.	.	.	.	.
.	.	16g/JJ	.	.	.	.	.	.	.	.
.	.	16a\LL	.	.	8f#/	.	.	.	.	.
.	.	16b\	.	.	.	.	.	.	.	.
.	.	16cc\	.	.	8g/	.	.	.	.	.
.	.	16dd\	.	.	.	.	.	.	.	.
.	.	16ee\	.	.	8a/	.	.	.	.	.
.	.	16ff#\JJ	.	.	.	.	.	.	.	.
=60	=60	=60	=60	=60	=60	=60	=60	=60	=60	=60
*	*	*^	*	*	*	*	*	*	*	*
[4.G\	.	8gg\	8ryy	.	.	8b\	.	.	8dd\	.	.
!	!	!	!	!	!	!	!	!	!	!	!LO:DY:a
.	.	(<16cc#X/LL	8a\	.	.	8a#X\	.	.	8cc#X\	.	<
.	.	16ee/	.	.	.	.	.	.	.	.	.
.	.	16dd/	8ryy	.	.	8b\	.	.	8dd\	.	.
.	.	16b/JJ)	.	.	.	.	.	.	.	.	.
!	!	!	!	!	!	!	!	!	!	!	!LO:DY:a
8G\]	.	[4.bb\ [4.gg\	4.ryy	.	.	[4.b\	.	.	[4.gg\	.	[ > ]]
(16F#\LL	>	.	.	.	.	.	.	.	.	.	.
16A\	.	.	.	.	.	.	.	.	.	.	.
16G\	.	.	.	.	.	.	.	.	.	.	.
16F#\JJ)	]]	.	.	.	.	.	.	.	.	.	.
=61	=61	=61	=61	=61	=61	=61	=61	=61	=61	=61	=61
[4.E\	.	8bb\] 8gg\]	8ryy	.	.	8b\]	.	.	8gg\]	.	.
.	.	16a#X/LL	8f#\	.	.	8f#/	.	.	8a#X/	.	.
.	.	16ccn/	.	.	.	.	.	.	.	.	.
.	.	16b/	8ryy	.	.	8g/	.	.	8b/	.	.
.	.	16g/JJ	.	.	.	.	.	.	.	.	.
8E\L]	.	(4gg\ 4b\	4.ryy	.	.	8b/	.	.	[4.gg\	.	.
16D#X\L	.	.	.	.	.	8g/	.	.	.	.	.
16F#\	.	.	.	.	.	.	.	.	.	.	.
16E\	.	8b\ 8g\)	.	.	.	8b/	co	.	.	.	.
16Dn\JJ	.	.	.	.	.	.	.	.	.	.	.
*	*	*v	*v	*	*	*	*	*	*	*	*
!!LO:LB:g=original
=62	=62	=62	=62	=62	=62	=62	=62	=62	=62	=62
*^	*	*	*	*	*	*	*	*	*	*
8r	4.C#X\	.	(16b^/LL	.	.	(8b/	ro-	.	8gg\]	.	.
.	.	.	16a/)	.	.	.	.	.	.	.	.
8A'/L	.	.	16gg/ 16ee/	.	.	8a/)	-ku	.	8a/	.	.
.	.	.	16a/	.	.	.	.	.	.	.	.
!	!	!	!	!	!	!	!	!	!LO:TX:t=P:problem=8ee poprawione na 8gg	!	!
8A'/J	.	.	16gg/ 16ee/	.	.	8r	.	.	8gg\	co	.
.	.	.	16a/JJ	.	.	.	.	.	.	.	.
!	!	!	!	!	!	!	!	!	!LO:TX:t=P:problem=4gg poprawione na 8gg	!	!LO:HP:b
8r	4.D#X\	.	(16gg^/LL	.	.	4r	.	.	(8gg\	ro-	>
.	.	.	16a/)	.	.	.	.	.	.	.	.
8B/L	.	.	(16ff#/	.	.	.	.	.	8ff#\)	-ku	]
.	.	.	16a/	.	.	.	.	.	.	.	.
[8B/J	.	.	16b/	.	.	8a/	wspo-	.	8r	.	.
.	.	.	16a/JJ)	.	.	.	.	.	.	.	.
=63	=63	=63	=63	=63	=63	=63	=63	=63	=63	=63	=63
8B/]	4.E\	.	(16a^/LL	.	.	(8a/	-mi-	.	8r	.	.
.	.	.	16g/)	.	.	.	.	.	.	.	.
!	!	!	!LO:TX:t=P:problem=16ee poprawione na 16ff#	!	!	!	!	!	!	!	!
8e/L 8B'/	.	.	(16ff#/	.	.	8g/)	-na	.	8r	.	.
.	.	.	16g/	.	.	.	.	.	.	.	.
8e/J 8B'/	.	.	16ff#/	.	.	8r	.	.	8ff#\	wspo-	.
.	.	.	16g/JJ)	.	.	.	.	.	.	.	.
!LO:TX:t=P:problem=mixed beam	!	!	!	!	!	!	!	!	!	!	!LO:HP:b
8AA/L	4.ryy	.	(16ff#^/LL	.	.	4r	.	.	(8ff#\	-mi-	>
.	.	.	16g/)	.	.	.	.	.	.	.	.
8c\ 8A'\	.	.	(16ee/	.	.	.	.	.	8ee\)	-na	]
.	.	.	16g/	.	.	.	.	.	.	.	.
*	*	*	*	*below	*	*	*	*	*	*	*
8c\J 8A'\	.	.	16a/	2	.	8r	.	.	8ee\	ach	.
.	.	.	16g/JJ)	1	.	.	.	.	.	.	.
=64	=64	=64	=64	=64	=64	=64	=64	=64	=64	=64	=64
8d\	4.ryy	.	16f#/LL	2	.	8f#/	ja-	.	8dd\	ja-	.
.	.	.	16g/	3	.	.	.	.	.	.	.
!	!	!	!	!	!	!	!	!	!	!	!LO:DY:a
8r	.	.	16a/	1	.	8e/	-każ	.	8cc#X\	-każ	<
.	.	.	16b/	.	.	.	.	.	.	.	.
8r	.	.	16cc/	.	.	8d/	to	.	8dd\	to	[
.	.	.	16dd/JJ	.	.	.	.	.	.	.	.
!	!	!	!	!	!LO:DY:b	!	!	!	!	!	!LO:DY:a
4.B/ 4.G#X/	[4.D\	.	16ee/LL	.	sf	[4.e^/	grzecz-	.	[4.ee\	grzecz-	>]
.	.	.	16e/	.	.	.	.	.	.	.	.
.	.	.	16f#/	.	.	.	.	.	.	.	.
.	.	.	16g#X/	.	.	.	.	.	.	.	.
.	.	.	16a/	1	.	.	.	.	.	.	.
.	.	.	16b/JJ	3	.	.	.	.	.	.	.
=65	=65	=65	=65	=65	=65	=65	=65	=65	=65	=65	=65
4.c/ 4.A/	4.D\]	.	16cc/LL	.	.	4.e/]	.	.	8ee\L]	.	.
.	.	.	16b/	.	.	.	.	.	.	.	.
.	.	.	16a/	.	.	.	.	.	8a\	.	.
.	.	.	16g/	.	.	.	.	.	.	.	.
.	.	.	16f#/	2	.	.	.	.	8b\J	.	.
.	.	.	16g/JJ	1	.	.	.	.	.	.	.
4.A/	4.D\	.	16a\LL	.	.	4f#/	-na	.	(8dd\L	-na	.
.	.	.	16b\	.	.	.	.	.	.	.	.
*	*	*	*	*above	*	*	*	*	*	*	*
.	.	.	16cc\	1	.	.	.	.	8cc\J)	.	.
.	.	.	16dd\	.	.	.	.	.	.	.	.
.	.	.	16ee\	.	.	8f#/	dziew	.	8a/	dziew	.
.	.	.	16ff#\JJ	.	.	.	.	.	.	.	.
!LO:LB:g=original	!	!	!	!	!	!	!	!	!	!	!
=66	=66	=66	=66	=66	=66	=66	=66	=66	=66	=66	=66
*	*	*	*^	*	*	*	*	*	*	*	*
8r	4.G\	.	8gg\	8ryy	.	.	8g/	.	.	8b\	.	.
8c#X/L 8A#X/	.	.	(<16cc#X/LL	8a#X\	.	.	8g/	.	.	8cc#X\	.	.
.	.	.	16ee/	.	.	.	.	.	.	.	.	.
8d/J 8B/	.	.	16dd/	8ryy	.	.	8r	.	.	8dd\	już	.
.	.	.	16b/JJ)	.	.	.	.	.	.	.	.	.
8r	4.Fn\	.	8bb/	8ryy	.	.	4r	.	.	8ee\	tyl-	.
(<8c#/L 8A#/	.	.	(<16cc#/LL	8a#\	.	.	.	.	.	8cc#\	-ko	.
.	.	.	16ee/	.	.	.	.	.	.	.	.	.
!	!	!	!	!	!	!	!LO:TX:t=P:problem=t.66-69 wykreślone - poprawne wpisane nad systemem	!	!	!	!	!
8d/J 8B/)	.	.	16dd/	8ryy	.	.	8dd\	co	.	8dd\	co	.
.	.	.	16b/JJ)	.	.	.	.	.	.	.	.	.
*	*	*	*v	*v	*	*	*	*	*	*	*	*
=67	=67	=67	=67	=67	=67	=67	=67	=67	=67	=67	=67
*	*	*	*	*	*	*2\right	*	*	*	*	*
!	!	!	!LO:TX:t=P:problem=t. 67-69 wykreślone - poprawne wpisane nad 2. systemem	!	!	!LO:TX:t=P:problem=2\right&colon; global	!	!	!	!	!
8r	4.E\	.	8ee/	.	.	(2.dd\	ro-	.	[2.ee\	ro-	.
(<8B/L 8G#X/	.	.	16e/LL	.	.	.	.	.	.	.	.
.	.	.	16b/	.	.	.	.	.	.	.	.
8d/J 8B/)	.	.	16g#X/	.	.	.	.	.	.	.	.
.	.	.	16ee/JJ	.	.	.	.	.	.	.	.
8r	4.E\	.	16b\LL	.	.	.	.	.	.	.	.
.	.	.	16gg#X\	.	.	.	.	.	.	.	.
(<8B/L 8G#/	.	.	16ee\	.	.	.	.	.	.	.	.
.	.	.	16bb\	.	.	.	.	.	.	.	.
8d/J 8B/)	.	.	16gg#\	.	.	.	.	.	.	.	.
.	.	.	16eee\JJ	.	.	.	.	.	.	.	.
=68	=68	=68	=68	=68	=68	=68	=68	=68	=68	=68	=68
*	*	*	*^	*	*	*	*	*	*	*	*
8r	4.A\	.	8ccc\ 8aa\	8ryy	.	.	8cc\)	-ku,	.	8ee\]	.	.
(<8fn/L 8d/	.	.	16b/LL	8g#X\	.	.	8r	.	.	8b\	-ku,	.
.	.	.	16dd/	.	.	.	.	.	.	.	.	.
8e/J 8c/)	.	.	16cc/	8ryy	.	.	8r	.	.	8cc\	już	.
.	.	.	16a/JJ	.	.	.	.	.	.	.	.	.
8r	4.G\	.	8aa\	8ryy	.	.	4r	.	.	8dd\	tyl-	.
(<8f/L 8d/	.	.	16b/LL	8g#\	.	.	.	.	.	8b\	-ko	.
.	.	.	16dd/	.	.	.	.	.	.	.	.	.
!	!	!	!	!	!	!	!	!	!	!LO:TX:t=P:problem=t.68-69 - poprawiony tekst	!	!
8e-X/J 8c/)	.	.	16cc/	8ryy	.	.	8cc\	co	.	8cc\	co	.
.	.	.	16a/JJ	.	.	.	.	.	.	.	.	.
*	*	*	*v	*v	*	*	*	*	*	*	*	*
=69	=69	=69	=69	=69	=69	=69	=69	=69	=69	=69	=69
8r	4.F#\	.	8aa\	.	.	(2.cc\	ro-	.	[2.dd\	ro-	.
8c/L 8A/	.	.	16d/LL	.	.	.	.	.	.	.	.
.	.	.	16a/	.	.	.	.	.	.	.	.
8c/J 8A/	.	.	16f#X/	.	.	.	.	.	.	.	.
.	.	.	16dd/JJ	.	.	.	.	.	.	.	.
8r	4.D\	.	16a\LL	.	.	.	.	.	.	.	.
.	.	.	16ff#\	.	.	.	.	.	.	.	.
8c/L 8A/	.	.	16dd\	.	.	.	.	.	.	.	.
.	.	.	16aa\	.	.	.	.	.	.	.	.
8c/J 8A/	.	.	16ff#\	.	.	.	.	.	.	.	.
.	.	.	16ddd\JJ	.	.	.	.	.	.	.	.
*v	*v	*	*	*	*	*	*	*	*	*	*
!!LO:PB:g=origina
=70	=70	=70	=70	=70	=70	=70	=70	=70	=70	=70
*	*	*^	*	*	*	*	*	*	*	*
!	!	!	!	!	!	!LO:TX:t=P:problem=brak zakończenia łuku (początek pięciolinii)	!	!	!	!	!
[4.G\	.	8bb\ 8gg\	8ryy	.	.	8b\)	-ku	.	8dd\]	-ku	.
.	.	(16cc#X/LL	8a^\	.	.	8a#X\	ja-	.	8cc#X\	ja-	.
.	.	16ee/	.	.	.	.	.	.	.	.	.
.	.	16dd/	8ryy	.	.	8b\	-ka	.	8dd\	-ka	.
.	.	16b/JJ)	.	.	.	.	.	.	.	.	.
!	!	!	!	!	!	!	!	!LO:DY:a	!	!	!LO:DY:a
8G\]	.	[>4.bb\ [>4.gg\	8ryy	.	.	[4.b\	grzecz-	>]	[4.gg\	grzecz-	>]
(16F#^\LL	.	.	4ryy	.	.	.	.	.	.	.	.
16A\	.	.	.	.	.	.	.	.	.	.	.
16G\	.	.	.	.	.	.	.	.	.	.	.
16F#\JJ)	.	.	.	.	.	.	.	.	.	.	.
=71	=71	=71	=71	=71	=71	=71	=71	=71	=71	=71	=71
[4.E\	.	8bb\] 8gg\]	8ryy	.	.	8b\]	.	.	8gg\]	.	.
.	.	(<16a#X/LL	8f#^\	.	.	8f#/	-na	.	8a#X/	-na	.
.	.	16ccn/	.	.	.	.	.	.	.	.	.
.	.	16b/	8ryy	.	.	8g/	dziew-	.	8b/	dziew-	.
.	.	16g/JJ)	.	.	.	.	.	.	.	.	.
!	!	!	!	!	!	!	!	!LO:DY:a	!	!	!LO:DY:a
8E\]	.	(4gg\ 4b\	8ryy	.	.	8b/	-czy-	>	[4.gg\	-czy-	>]
(16D#X^\LL	.	.	4ryy	.	.	8g/	-na,	]	.	.	.
16F#\	.	.	.	.	.	.	.	.	.	.	.
16E\	.	8b\ 8g\)	.	.	.	8b/	co	.	.	.	.
16Dn\JJ)	.	.	.	.	.	.	.	.	.	.	.
*	*	*v	*v	*	*	*	*	*	*	*	*
=72	=72	=72	=72	=72	=72	=72	=72	=72	=72	=72
*^	*	*	*	*	*	*	*	*	*	*
!	!	!	!	!	!	!	!	!LO:DY:a	!	!	!
8r	4.C\	.	(16b^/LL	.	.	(8b/	ro-	>	8gg\]	.	.
.	.	.	16a/)	.	.	.	.	.	.	.	.
8A/L 8E/	.	.	(16gg/	.	.	8a/)	-ku	]	8a/	-na	.
.	.	.	16a/	.	.	.	.	.	.	.	.
8A/J 8E/	.	.	16gg/	.	.	8r	.	.	8gg\	co	.
.	.	.	16a/JJ)	.	.	.	.	.	.	.	.
!	!	!	!	!	!	!	!	!	!	!	!LO:DY:a
8r	4.D#X\	.	(16gg^/LL	.	.	4r	.	.	(8gg\	ro-	>
.	.	.	16a/)	.	.	.	.	.	.	.	.
8B/L 8F#/	.	.	(16ff#/	.	.	.	.	.	8ff#\)	-ku	]
.	.	.	16a/	.	.	.	.	.	.	.	.
8B/J 8F#/	.	.	16b/	.	.	8a/	wspo-	.	8r	.	.
.	.	.	16a/JJ)	.	.	.	.	.	.	.	.
=73	=73	=73	=73	=73	=73	=73	=73	=73	=73	=73	=73
!	!	!	!	!	!	!	!	!LO:DY:a	!	!	!
8r	4.E\	.	(16a^/LL	.	.	(8a/	-mi-	>	8r	.	.
.	.	.	16g/)	.	.	.	.	.	.	.	.
8e/L 8B/	.	.	(16ff#/	.	.	8g/)	-na	]	8r	.	.
.	.	.	16g/	.	.	.	.	.	.	.	.
8e/J 8B/	.	.	16ff#/	.	.	8r	.	.	8ff#\	wspo-	.
.	.	.	16g/JJ)	.	.	.	.	.	.	.	.
!LO:TX:t=P:problem=mixed beam	!	!	!	!	!	!	!	!	!	!	!LO:DY:a
8AA/L	4.ryy	.	(16ff#^/LL	.	.	4r	.	.	(8ff#\	-mi-	>
.	.	.	16g/)	.	.	.	.	.	.	.	.
8c\ 8A\	.	.	(16ee/	.	.	.	.	.	8ee\)	-na	]
.	.	.	16g/	.	.	.	.	.	.	.	.
8c\J 8A\	.	.	16a/	.	.	8r	.	.	8ee\	ach	.
.	.	.	16g/JJ)	.	.	.	.	.	.	.	.
!!LO:LB:g=original
=74	=74	=74	=74	=74	=74	=74	=74	=74	=74	=74	=74
*	*	*	*	*below	*	*	*	*	*	*	*
!	!	!	!	!	!LO:HP:b	!	!	!	!	!	!
8d\	4.ryy	.	(16f#/LL	2	<	8r	.	.	8dd\	ja-	.
.	.	.	16a/	3	.	.	.	.	.	.	.
8r	.	.	16b/	1	.	8r	.	.	8cc#X\	-każ	.
.	.	.	16cc#X/	.	.	.	.	.	.	.	.
8r	.	.	16dd/	.	.	8d/	ach	.	8dd\	to	.
.	.	.	16ee/JJ)	.	.	.	.	.	.	.	.
!LO:TX:t=P:łuki:problem	!	!	!	!	!	!	!	!	!	!	!
!LO:N:vis=4	!	!	!	!	!	!	!	!	!	!	!LO:DY:a
4.fn/ 4.d/	(<(>4.B\ 4.G#X\	.	(16ffn/LL	.	[	[4.dd^\	grzecz-	.	[4.ffn\	grzecz-	>]
.	.	.	16dd/	5	.	.	.	.	.	.	.
.	.	.	16b/	4	.	.	.	.	.	.	.
.	.	.	16g#X/	.	.	.	.	.	.	.	.
.	.	.	16fn/	1	.	.	.	.	.	.	.
.	.	.	16d/JJ)	2	.	.	.	.	.	.	.
*v	*v	*	*	*	*	*	*	*	*	*	*
=75	=75	=75	=75	=75	=75	=75	=75	=75	=75	=75
!	!	!	!	!	!LO:TX:t=P:problem=8cc poprawione na 8dd	!	!	!	!	!
4A\)	.	(16c/LL	1	.	(8dd\L]	.	.	(8ff\L]	.	.
.	.	16e/	3	.	.	.	.	.	.	.
.	.	16a/	1	.	8cc\J)	.	.	8ee\J)	.	.
.	.	16cc/	3	.	.	.	.	.	.	.
8r	.	16ee/	.	.	8g#X/	-na	.	8b\	-na	.
.	.	16b/JJ	.	.	.	.	.	.	.	.
!	!	!	!	!	!	!	!LO:DY:a	!	!	!LO:DY:a
(4.F#\ (4.D\	.	16dd/LL	4	.	(8b/L	to	>	(8dd\L	to	>
.	.	16cc/	.	.	.	.	.	.	.	.
.	.	16a/	1	.	8a/J)	.	]	8cc\J)	.	]
.	.	16f#/	4	.	.	.	.	.	.	.
.	.	16d/	2	.	8f#/	dziew-	.	8a/	dziew-	.
.	.	16c/JJ)	.	.	.	.	.	.	.	.
=76	=76	=76	=76	=76	=76	=76	=76	=76	=76	=76
*	*	*^	*	*	*	*	*	*	*	*
16G\LL))	.	16B/LL	4.ryy	2	.	8g/	-czy-	.	8g/	-czy-	.
16D\	.	16d/	.	1	.	.	.	.	.	.	.
!	!	!	!	!	!LO:TX:t=cres_:problem=dynamics with extention lines	!	!	!	!	!	!
!	!	!	!	!	!LO:HP:b:t=crescendo	!	!	!	!	!	!
16E\	.	16e/	.	.	<	8d/	-na	.	8d/	-na,	.
16F#\	.	16f#/	.	.	.	.	.	.	.	.	.
16G\	.	16g/	.	.	.	8g/	co	.	8g/	co	.
16A\JJ	.	16a/	.	.	.	.	.	.	.	.	.
!	!	!	!LO:TX:t=P:problem=mixed beam	!	!	!	!	!	!	!	!
16B\LL	.	16b/JJ	16b\LL	.	.	8.g/	ro-	.	8.g/	ro-	.
16D\	.	4ryy	16d/	.	.	.	.	.	.	.	.
16E\	.	.	16e/	.	.	.	.	.	.	.	.
16F#\	.	.	16f#/	.	.	16f#X/	-ku	.	16f#X/	-ku	.
!	!	!	!	!	!	!	!	!	!LO:TX:t=P:problem=t.76-77 - poprawiony tekst	!	!
16G\	.	.	16g/	.	.	8g/	co	.	8g/	co	.
16A\JJ	.	16ryy	16a/JJ	.	.	.	.	.	.	.	.
*	*	*v	*v	*	*	*	*	*	*	*	*
!!LO:LB:g=original
=77	=77	=77	=77	=77	=77	=77	=77	=77	=77	=77
!	!	!	!	!	!LO:TX:t=P:problem=przed 8.b usunięty ♭	!	!	!	!	!
!	!	!	!	!	!LO:TX:t=P:problem=t. 77 - poprawiony tekst	!	!	!LO:TX:t=P:problem=przed 8.b usunięty ♭	!	!
16B\LL	.	16b/LL	.	.	8.b/	ro-	.	8.b/	ro-	.
16F#\	.	16f#/	.	.	.	.	.	.	.	.
16G\	.	16g/	1	.	.	.	.	.	.	.
16A#X\	.	16a#X/	2	.	16a#X/	-ku	.	16a#X/	-ku	.
16B\	.	16b/	.	.	8b/	wspo-	.	8b/	wspo-	.
16c#X\JJ	.	16cc#X/JJ	.	.	.	.	.	.	.	.
16d\LL	.	16dd/LL	.	.	8dd\	-mi-	.	8dd\	-mi-	.
16A#X\	.	16a#X/	1	.	.	.	.	.	.	.
16B\	.	16b/	2	.	8cc#X\	-na,	.	8cc#X\	-na,	.
16c#X\	.	16cc#X/	.	.	.	.	.	.	.	.
16d\JJ	.	16dd/	.	.	8dd\	ach	.	8dd\	ach	.
16r	.	16ff#/JJ	.	.	.	.	.	.	.	.
=78	=78	=78	=78	=78	=78	=78	=78	=78	=78	=78
*	*	*2\right	*	*	*	*	*	*	*	*
!	!	!	!	!LO:DY:b	!LO:TX:t=P:problem=przed 2.ee wykreślony ♭	!	!LO:DY:rj:a	!	!	!LO:DY:rj:a
([<4.C#X/ 4.CC/	.	16gg\ 16een\ 16b-X\LL	.	ff	[2.ee\	ja-	ff	[2.gg\	ja-	ff
.	.	16gg\ 16een\ 16b-X\	.	.	.	.	.	.	.	.
.	.	16gg\ 16een\ 16b-X\	.	.	.	.	.	.	.	.
.	.	16gg\ 16een\ 16b-X\	.	.	.	.	.	.	.	.
.	.	16gg\ 16een\ 16b-X\	.	.	.	.	.	.	.	.
.	.	16gg\ 16een\ 16b-X\	.	.	.	.	.	.	.	.
4C#/] 4CC/	.	16gg\ 16een\ 16b-X\	.	.	.	.	.	.	.	.
.	.	16gg\ 16een\ 16b-X\	.	.	.	.	.	.	.	.
.	.	16gg\ 16een\ 16b-X\	.	.	.	.	.	.	.	.
.	.	16gg\ 16een\ 16b-X\	.	.	.	.	.	.	.	.
8D/ 8DD/	.	16gg\ 16een\ 16b-X\	.	.	.	.	.	.	.	.
.	.	16gg\ 16een\ 16b-X\JJ	.	.	.	.	.	.	.	.
*	*	*Xtremolo	*	*	*	*	*	*	*	*
=79	=79	=79	=79	=79	=79	=79	=79	=79	=79	=79
4.E/ 4.EE/)	.	8gg\ 8ee\ 8b\ 8g\	.	.	2.ee\]	.	.	2.gg\]	.	.
.	.	8r	.	.	.	.	.	.	.	.
.	.	8r	.	.	.	.	.	.	.	.
(4GG/ 4GGG/	.	(4g/	.	.	.	.	.	.	.	.
8AA/ 8AAA/	.	8a/	.	.	.	.	.	.	.	.
=80	=80	=80	=80	=80	=80	=80	=80	=80	=80	=80
!	!	!LO:TX:t=P:problem=wykreślony # przed 4bn	!	!	!	!	!	!	!	!
4BB/ 4BBB/)	.	4bn/)	.	.	4dd\	-ka	.	4dd\	-ka	.
8r	.	8r	.	.	8r	.	.	8r	.	.
*tremolo	*	*	*	*	*	*	*	*	*	*
!	!	!	!	!LO:DY:b	!	!	!	!	!	!
8B\ 8G#X\ 8E\ 8D\L	.	16e/LL	.	ff	[4.dd^\	grzecz-	.	[4.ee^\	grzecz-	.
!	!	!LO:TX:t=P:problem=podkreslony napis Presto.	!	!	!	!	!	!	!	!
!	!	!LO:TX:b:t=Presto.	!	!	!	!	!	!	!	!
.	.	16f#X/	.	.	.	.	.	.	.	.
8B\ 8G#X\ 8E\ 8D\	.	16g#X/	.	.	.	.	.	.	.	.
.	.	16a/	.	.	.	.	.	.	.	.
8B\ 8G#X\ 8E\ 8D\J	.	16b/	.	.	.	.	.	.	.	.
.	.	16cc/JJ	.	.	.	.	.	.	.	.
=81	=81	=81	=81	=81	=81	=81	=81	=81	=81	=81
!	!	!	!	!	!LO:N:vis=4	!	!	!	!	!
8B\ 8G#X\ 8E\ 8D\L	.	16dd\LL	.	.	4.dd\]	.	.	4.ee\]	.	.
.	.	16ee\	.	.	.	.	.	.	.	.
8B\ 8G#X\ 8E\ 8D\	.	16ff#X\	.	.	.	.	.	.	.	.
.	.	16gg#X\	.	.	.	.	.	.	.	.
8B\ 8G#X\ 8E\ 8D\J	.	16aa\	.	.	.	.	.	.	.	.
.	.	16bb\JJ	.	.	.	.	.	.	.	.
*Xtremolo	*	*	*	*	*	*	*	*	*	*
!LO:TX:t=P:problem=wylreślony akord D-G-A-c	!	!	!	!	!	!	!	!	!	!
8A\L 8E\ 8C\	.	16ccc\LL	.	.	4cc\	-na	.	8a/	-na	.
.	.	16bb\	.	.	.	.	.	.	.	.
8A\ 8E\ 8AA\	.	16ccc\	.	.	.	.	.	8r	.	.
.	.	16ddd\	.	.	.	.	.	.	.	.
!	!	!	!	!	!LO:TX:t=P:problem=8a poprawione na 8f	!	!	!	!	!
8A\J 8D\	.	16eee\	.	.	8f#/	dziew-	.	8dd\	dziew-	.
.	.	16fff#\JJ	.	.	.	.	.	.	.	.
=82	=82	=82	=82	=82	=82	=82	=82	=82	=82	=82
4B\ 4G\	.	4ggg\	.	.	8g/	-czy-	.	8dd\	-czy-	.
.	.	.	.	.	8g/	-na!	.	8g/	-na!	.
8r	.	8r	.	.	8r	.	.	8r	.	.
4d\ 4A\ 4D\	.	4ddd\ 4aa\ 4ff#\ 4dd\	.	.	4r	.	.	4r	.	.
8r	.	8r	.	.	8r	.	.	8r	.	.
=83	=83	=83	=83	=83	=83	=83	=83	=83	=83	=83
4d\ 4B\ 4G\	.	4bb\ 4gg\ 4dd\	.	.	2.ryy	.	.	2.ryy	.	.
8r	.	8r	.	.	.	.	.	.	.	.
4D/ 4DD/	.	4dd/ 4a/ 4f#/ 4d/	.	.	.	.	.	.	.	.
8r	.	8r	.	.	.	.	.	.	.	.
=84	=84	=84	=84	=84	=84	=84	=84	=84	=84	=84
2.GG/ 2.GGG^>/	.	2.g/ 2.G^/	.	.	2.ryy	.	.	2.ryy	.	.
==	==	==	==	==	==	==	==	==	==	==
*-	*-	*-	*-	*-	*-	*-	*-	*-	*-	*-
!!!system-decoration: [(s1,s2,s3,s4)]
!!!RDF**kern: > = above
!!!RDF**kern: < = below
!!!RDF**kern: | = vertical stroke
!!!EED: Leszek Kubiak
!!!EEV: 2021-04-16
!!!ENC: Katarzyna Serwa
!!!END: 2021-03-31
